X:11
T:Kate Dalrymple
M:4/4
L:1/8
K:A
|:"A" A2 Ac "E"B2 Bc | "A" A2 Ac "E" B2 Bc | "A" A2 ab "D" fedc |1 "E" B2 e2 "A"c2 A2 :|2"E"B2 e2 c2 "A"Ac ||
"A"e2 ef edcd | "A" e2 a2 e2 cd | "A"e2 a2 e2 a2 | "A"e2 ag fedc |
 "D"d2 fe "A" c2 eA | "E" B2 Bc "E7"d2 cB | "A"A2 ab "D"fedc | "E"B2 e2 "A"c2 A2 ||
%%newpage

